static/img/kroki/5edde23f25dbd8d29906588f006acd5d.svg

<?xml version="1.0" encoding="us-ascii" standalone="no"?><svg xmlns="http://www.w3.org/2000/svg" xmlns:xlink="http://www.w3.org/1999/xlink" contentStyleType="text/css" height="352px" preserveAspectRatio="none" style="width:1326px;height:352px;" version="1.1" viewBox="0 0 1326 352" width="1326px" zoomAndPan="magnify"><defs/><g><!--class azure_compute_availability_set--><g id="elem_azure_compute_availability_set"><rect codeLine="23" fill="#3D176E" height="39.7891" id="azure_compute_availability_set" rx="2.5" ry="2.5" style="stroke:#000D19;stroke-width:0.5;" width="305" x="222.5" y="7"/><ellipse cx="237.5" cy="26.8945" fill="#ADD1B2" rx="11" ry="11" style="stroke:#181818;stroke-width:1.0;"/><path d="M240.4688,32.5352 Q239.8906,32.832 239.25,32.9727 Q238.6094,33.1289 237.9063,33.1289 Q235.4063,33.1289 234.0781,31.4883 Q232.7656,29.832 232.7656,26.707 Q232.7656,23.582 234.0781,21.9258 Q235.4063,20.2695 237.9063,20.2695 Q238.6094,20.2695 239.25,20.4258 Q239.9063,20.582 240.4688,20.8789 L240.4688,23.5977 Q239.8438,23.0195 239.25,22.7539 Q238.6563,22.4727 238.0313,22.4727 Q236.6875,22.4727 236,23.5508 Q235.3125,24.6133 235.3125,26.707 Q235.3125,28.8008 236,29.8789 Q236.6875,30.9414 238.0313,30.9414 Q238.6563,30.9414 239.25,30.6758 Q239.8438,30.3945 240.4688,29.8164 L240.4688,32.5352 Z " fill="#000000"/><text fill="#D9B8FF" font-family="Helvetica" font-size="17" lengthAdjust="spacing" textLength="263" x="256.5" y="32.7798">azure_compute_availability_set</text></g><!--class azure_compute_proximity_placement_group--><g id="elem_azure_compute_proximity_placement_group"><rect codeLine="26" fill="#3D176E" height="39.7891" id="azure_compute_proximity_placement_group" rx="2.5" ry="2.5" style="stroke:#000D19;stroke-width:0.5;" width="414" x="355" y="106.79"/><ellipse cx="370" cy="126.6845" fill="#ADD1B2" rx="11" ry="11" style="stroke:#181818;stroke-width:1.0;"/><path d="M372.9688,132.3252 Q372.3906,132.622 371.75,132.7627 Q371.1094,132.9189 370.4063,132.9189 Q367.9063,132.9189 366.5781,131.2783 Q365.2656,129.622 365.2656,126.497 Q365.2656,123.372 366.5781,121.7158 Q367.9063,120.0595 370.4063,120.0595 Q371.1094,120.0595 371.75,120.2158 Q372.4063,120.372 372.9688,120.6689 L372.9688,123.3877 Q372.3438,122.8095 371.75,122.5439 Q371.1563,122.2627 370.5313,122.2627 Q369.1875,122.2627 368.5,123.3408 Q367.8125,124.4033 367.8125,126.497 Q367.8125,128.5908 368.5,129.6689 Q369.1875,130.7314 370.5313,130.7314 Q371.1563,130.7314 371.75,130.4658 Q372.3438,130.1845 372.9688,129.6064 L372.9688,132.3252 Z " fill="#000000"/><text fill="#D9B8FF" font-family="Helvetica" font-size="17" lengthAdjust="spacing" textLength="372" x="389" y="132.5698">azure_compute_proximity_placement_group</text></g><!--class azure_compute_virtual_machine--><g id="elem_azure_compute_virtual_machine"><rect codeLine="29" fill="#3D176E" height="39.7891" id="azure_compute_virtual_machine" rx="2.5" ry="2.5" style="stroke:#000D19;stroke-width:0.5;" width="315" x="404.5" y="206.58"/><ellipse cx="419.5" cy="226.4745" fill="#ADD1B2" rx="11" ry="11" style="stroke:#181818;stroke-width:1.0;"/><path d="M422.4688,232.1152 Q421.8906,232.412 421.25,232.5527 Q420.6094,232.7089 419.9063,232.7089 Q417.4063,232.7089 416.0781,231.0683 Q414.7656,229.412 414.7656,226.287 Q414.7656,223.162 416.0781,221.5058 Q417.4063,219.8495 419.9063,219.8495 Q420.6094,219.8495 421.25,220.0058 Q421.9063,220.162 422.4688,220.4589 L422.4688,223.1777 Q421.8438,222.5995 421.25,222.3339 Q420.6563,222.0527 420.0313,222.0527 Q418.6875,222.0527 418,223.1308 Q417.3125,224.1933 417.3125,226.287 Q417.3125,228.3808 418,229.4589 Q418.6875,230.5214 420.0313,230.5214 Q420.6563,230.5214 421.25,230.2558 Q421.8438,229.9745 422.4688,229.3964 L422.4688,232.1152 Z " fill="#000000"/><text fill="#D9B8FF" font-family="Helvetica" font-size="17" lengthAdjust="spacing" textLength="273" x="438.5" y="232.3598">azure_compute_virtual_machine</text></g><!--class azure_compute_virtual_machine_base--><g id="elem_azure_compute_virtual_machine_base"><rect codeLine="32" fill="#3D176E" height="39.7891" id="azure_compute_virtual_machine_base" rx="2.5" ry="2.5" style="stroke:#000D19;stroke-width:0.5;" width="362" x="7" y="206.58"/><ellipse cx="22" cy="226.4745" fill="#ADD1B2" rx="11" ry="11" style="stroke:#181818;stroke-width:1.0;"/><path d="M24.9688,232.1152 Q24.3906,232.412 23.75,232.5527 Q23.1094,232.7089 22.4063,232.7089 Q19.9063,232.7089 18.5781,231.0683 Q17.2656,229.412 17.2656,226.287 Q17.2656,223.162 18.5781,221.5058 Q19.9063,219.8495 22.4063,219.8495 Q23.1094,219.8495 23.75,220.0058 Q24.4063,220.162 24.9688,220.4589 L24.9688,223.1777 Q24.3438,222.5995 23.75,222.3339 Q23.1563,222.0527 22.5313,222.0527 Q21.1875,222.0527 20.5,223.1308 Q19.8125,224.1933 19.8125,226.287 Q19.8125,228.3808 20.5,229.4589 Q21.1875,230.5214 22.5313,230.5214 Q23.1563,230.5214 23.75,230.2558 Q24.3438,229.9745 24.9688,229.3964 L24.9688,232.1152 Z " fill="#000000"/><text fill="#D9B8FF" font-family="Helvetica" font-size="17" lengthAdjust="spacing" textLength="320" x="41" y="232.3598">azure_compute_virtual_machine_base</text></g><!--class azure_compute_virtual_machine_scale_set--><g id="elem_azure_compute_virtual_machine_scale_set"><rect codeLine="35" fill="#3D176E" height="39.7891" id="azure_compute_virtual_machine_scale_set" rx="2.5" ry="2.5" style="stroke:#000D19;stroke-width:0.5;" width="399" x="754.5" y="206.58"/><ellipse cx="769.5" cy="226.4745" fill="#ADD1B2" rx="11" ry="11" style="stroke:#181818;stroke-width:1.0;"/><path d="M772.4688,232.1152 Q771.8906,232.412 771.25,232.5527 Q770.6094,232.7089 769.9063,232.7089 Q767.4063,232.7089 766.0781,231.0683 Q764.7656,229.412 764.7656,226.287 Q764.7656,223.162 766.0781,221.5058 Q767.4063,219.8495 769.9063,219.8495 Q770.6094,219.8495 771.25,220.0058 Q771.9063,220.162 772.4688,220.4589 L772.4688,223.1777 Q771.8438,222.5995 771.25,222.3339 Q770.6563,222.0527 770.0313,222.0527 Q768.6875,222.0527 768,223.1308 Q767.3125,224.1933 767.3125,226.287 Q767.3125,228.3808 768,229.4589 Q768.6875,230.5214 770.0313,230.5214 Q770.6563,230.5214 771.25,230.2558 Q771.8438,229.9745 772.4688,229.3964 L772.4688,232.1152 Z " fill="#000000"/><text fill="#D9B8FF" font-family="Helvetica" font-size="17" lengthAdjust="spacing" textLength="357" x="788.5" y="232.3598">azure_compute_virtual_machine_scale_set</text></g><!--class azure_compute_virtual_machine_scale_set_instance--><g id="elem_azure_compute_virtual_machine_scale_set_instance"><rect codeLine="38" fill="#3D176E" height="39.7891" id="azure_compute_virtual_machine_scale_set_instance" rx="2.5" ry="2.5" style="stroke:#000D19;stroke-width:0.5;" width="478" x="841" y="306.37"/><ellipse cx="856" cy="326.2645" fill="#ADD1B2" rx="11" ry="11" style="stroke:#181818;stroke-width:1.0;"/><path d="M858.9688,331.9052 Q858.3906,332.202 857.75,332.3427 Q857.1094,332.4989 856.4063,332.4989 Q853.9063,332.4989 852.5781,330.8583 Q851.2656,329.202 851.2656,326.077 Q851.2656,322.952 852.5781,321.2958 Q853.9063,319.6395 856.4063,319.6395 Q857.1094,319.6395 857.75,319.7958 Q858.4063,319.952 858.9688,320.2489 L858.9688,322.9677 Q858.3438,322.3895 857.75,322.1239 Q857.1563,321.8427 856.5313,321.8427 Q855.1875,321.8427 854.5,322.9208 Q853.8125,323.9833 853.8125,326.077 Q853.8125,328.1708 854.5,329.2489 Q855.1875,330.3114 856.5313,330.3114 Q857.1563,330.3114 857.75,330.0458 Q858.3438,329.7645 858.9688,329.1864 L858.9688,331.9052 Z " fill="#000000"/><text fill="#D9B8FF" font-family="Helvetica" font-size="17" lengthAdjust="spacing" textLength="436" x="875" y="332.1498">azure_compute_virtual_machine_scale_set_instance</text></g><!--link azure_compute_availability_set to azure_compute_proximity_placement_group--><g id="link_azure_compute_availability_set_azure_compute_proximity_placement_group"><path codeLine="41" d="M411.95,47.22 C444.73,64.36 487.053,86.4998 519.813,103.6298 " fill="none" id="azure_compute_availability_set-to-azure_compute_proximity_placement_group" style="stroke:#1A83AF;stroke-width:2.0;"/><polygon fill="#1A83AF" points="525.13,106.41,519.008,98.695,520.6992,104.0931,515.301,105.7843,525.13,106.41" style="stroke:#1A83AF;stroke-width:2.0;"/></g><!--link azure_compute_availability_set to azure_compute_virtual_machine_base--><g id="link_azure_compute_availability_set_azure_compute_virtual_machine_base"><path codeLine="42" d="M356.73,47.2 C320.98,84.97 246.2747,163.9026 210.4647,201.7326 " fill="none" id="azure_compute_availability_set-to-azure_compute_virtual_machine_base" style="stroke:#1A83AF;stroke-width:2.0;"/><polygon fill="#1A83AF" points="206.34,206.09,215.432,202.3037,209.7773,202.4588,209.6221,196.8041,206.34,206.09" style="stroke:#1A83AF;stroke-width:2.0;"/></g><!--link azure_compute_proximity_placement_group to azure_compute_virtual_machine--><g id="link_azure_compute_proximity_placement_group_azure_compute_virtual_machine"><path codeLine="43" d="M562,147.01 C562,164.15 562,183.06 562,200.2 " fill="none" id="azure_compute_proximity_placement_group-to-azure_compute_virtual_machine" style="stroke:#1A83AF;stroke-width:2.0;"/><polygon fill="#1A83AF" points="562,206.2,566,197.2,562,201.2,558,197.2,562,206.2" style="stroke:#1A83AF;stroke-width:2.0;"/></g><!--link azure_compute_proximity_placement_group to azure_compute_virtual_machine_base--><g id="link_azure_compute_proximity_placement_group_azure_compute_virtual_machine_base"><path codeLine="44" d="M488.11,147.01 C422.65,164.12 333.3748,187.4621 267.8648,204.5921 " fill="none" id="azure_compute_proximity_placement_group-to-azure_compute_virtual_machine_base" style="stroke:#1A83AF;stroke-width:2.0;"/><polygon fill="#1A83AF" points="262.06,206.11,271.7792,207.7031,266.8974,204.8451,269.7553,199.9633,262.06,206.11" style="stroke:#1A83AF;stroke-width:2.0;"/></g><!--link azure_compute_proximity_placement_group to azure_compute_virtual_machine_scale_set--><g id="link_azure_compute_proximity_placement_group_azure_compute_virtual_machine_scale_set"><path codeLine="45" d="M639.45,147.01 C708.06,164.12 801.8984,187.5276 870.5584,204.6576 " fill="none" id="azure_compute_proximity_placement_group-to-azure_compute_virtual_machine_scale_set" style="stroke:#1A83AF;stroke-width:2.0;"/><polygon fill="#1A83AF" points="876.38,206.11,868.616,200.0503,871.5287,204.8996,866.6794,207.8124,876.38,206.11" style="stroke:#1A83AF;stroke-width:2.0;"/></g><!--link azure_compute_proximity_placement_group to azure_compute_virtual_machine_scale_set_instance--><g id="link_azure_compute_proximity_placement_group_azure_compute_virtual_machine_scale_set_instance"><path codeLine="46" d="M769.44,141.17 C935.26,154.12 1144.3,176.2 1171,206.58 C1200.39,240.03 1154.583,278.6483 1117.833,302.6583 " fill="none" id="azure_compute_proximity_placement_group-to-azure_compute_virtual_machine_scale_set_instance" style="stroke:#1A83AF;stroke-width:2.0;"/><polygon fill="#1A83AF" points="1112.81,305.94,1122.5323,304.3661,1116.9958,303.2053,1118.1567,297.6688,1112.81,305.94" style="stroke:#1A83AF;stroke-width:2.0;"/></g><!--link azure_compute_virtual_machine_scale_set to azure_compute_virtual_machine_scale_set_instance--><g id="link_azure_compute_virtual_machine_scale_set_azure_compute_virtual_machine_scale_set_instance"><path codeLine="47" d="M978.89,246.8 C1000.98,263.94 1028.3404,285.1708 1050.4204,302.3108 " fill="none" id="azure_compute_virtual_machine_scale_set-to-azure_compute_virtual_machine_scale_set_instance" style="stroke:#1A83AF;stroke-width:2.0;"/><polygon fill="#1A83AF" points="1055.16,305.99,1050.5034,297.3115,1051.2104,302.924,1045.5978,303.6309,1055.16,305.99" style="stroke:#1A83AF;stroke-width:2.0;"/></g><!--SRC=[jP9BJy9058Nt_HMJi2O1YG8R4oGXkY56t1dJtCxSqWdpQEvCGJ3-TwcWrfP23M4xzvjppdqaKY13dVerqwWZ91UuXJGf46Ws8hAhiLMMM2kE8UxroyM9DVuaC0MDx1xL4htaK2QU4yaN1frZLuNI7V35d6ncn4xU4nYtBQ7n1MgimBcHzoIZp6CXZ1X6WpWkasNHLazq-pTOmIm9f3tIwNH4TrX6JbeTxVk7cCaDicvnQ5FhiHApOl557KsP4uMGbKQ_wxKP7q48QURikl3sjCj41kdF-om1OLSv7ODoHHldaT3wTOhZIbSu78YuVn1-g8C3de-EmIOZ3BdLwNRj8In1AeYaaduTElJiFGW-3f8fsJUfSonLm55lhodCRTBwBqj9FWCLQk29DDWO32Dm_w0T1uN7mzT-2QLn7WpVsvqOJlkbrHqDUgF9Q_kswNZEq3mqbg3fLfhhNa3oKb5_5tTHyP-h29fUtdakdm00]--></g></svg>

<svg xmlns="http://www.w3.org/2000/svg" width="1326" height="352" viewBox="0 0 1326 352"><rect width="305" height="39.789" x="222.5" y="7" fill="#3D176E" rx="2.5" ry="2.5" style="stroke:#000d19;stroke-width:.5"/><circle cx="237.5" cy="26.895" r="11" fill="#ADD1B2" style="stroke:#181818;stroke-width:1"/><path d="M240.469 32.535q-.578.297-1.219.438-.64.156-1.344.156-2.5 0-3.828-1.64-1.312-1.657-1.312-4.782t1.312-4.781q1.328-1.656 3.828-1.656.703 0 1.344.156.656.156 1.219.453v2.719q-.625-.578-1.219-.844-.594-.281-1.219-.281-1.344 0-2.031 1.078-.687 1.062-.687 3.156t.687 3.172q.688 1.062 2.031 1.062.625 0 1.219-.265.594-.281 1.219-.86z"/><text x="256.5" y="32.78" fill="#D9B8FF" font-family="Helvetica" font-size="17" textLength="263">azure_compute_availability_set</text><rect width="414" height="39.789" x="355" y="106.79" fill="#3D176E" rx="2.5" ry="2.5" style="stroke:#000d19;stroke-width:.5"/><circle cx="370" cy="126.684" r="11" fill="#ADD1B2" style="stroke:#181818;stroke-width:1"/><path d="M372.969 132.325q-.578.297-1.219.438-.64.156-1.344.156-2.5 0-3.828-1.64-1.312-1.657-1.312-4.782t1.312-4.781q1.328-1.656 3.828-1.656.703 0 1.344.156.656.156 1.219.453v2.719q-.625-.579-1.219-.844-.594-.281-1.219-.281-1.344 0-2.031 1.078-.687 1.062-.687 3.156t.687 3.172q.688 1.062 2.031 1.062.625 0 1.219-.265.594-.281 1.219-.86z"/><text x="389" y="132.57" fill="#D9B8FF" font-family="Helvetica" font-size="17" textLength="372">azure_compute_proximity_placement_group</text><rect width="315" height="39.789" x="404.5" y="206.58" fill="#3D176E" rx="2.5" ry="2.5" style="stroke:#000d19;stroke-width:.5"/><circle cx="419.5" cy="226.475" r="11" fill="#ADD1B2" style="stroke:#181818;stroke-width:1"/><path d="M422.469 232.115q-.578.297-1.219.438-.64.156-1.344.156-2.5 0-3.828-1.64-1.312-1.657-1.312-4.782t1.312-4.781q1.328-1.656 3.828-1.656.703 0 1.344.156.656.156 1.219.453v2.719q-.625-.578-1.219-.844-.594-.281-1.219-.281-1.344 0-2.031 1.078-.687 1.062-.687 3.156t.687 3.172q.688 1.062 2.031 1.062.625 0 1.219-.265.594-.281 1.219-.86z"/><text x="438.5" y="232.36" fill="#D9B8FF" font-family="Helvetica" font-size="17" textLength="273">azure_compute_virtual_machine</text><rect width="362" height="39.789" x="7" y="206.58" fill="#3D176E" rx="2.5" ry="2.5" style="stroke:#000d19;stroke-width:.5"/><circle cx="22" cy="226.475" r="11" fill="#ADD1B2" style="stroke:#181818;stroke-width:1"/><path d="M24.969 232.115q-.578.297-1.219.438-.64.156-1.344.156-2.5 0-3.828-1.64-1.312-1.657-1.312-4.782t1.312-4.781q1.328-1.656 3.828-1.656.703 0 1.344.156.656.156 1.219.453v2.719q-.625-.578-1.219-.844-.594-.281-1.219-.281-1.343 0-2.031 1.078-.687 1.062-.687 3.156t.687 3.172q.688 1.062 2.031 1.062.625 0 1.219-.265.594-.281 1.219-.86z"/><text x="41" y="232.36" fill="#D9B8FF" font-family="Helvetica" font-size="17" textLength="320">azure_compute_virtual_machine_base</text><rect width="399" height="39.789" x="754.5" y="206.58" fill="#3D176E" rx="2.5" ry="2.5" style="stroke:#000d19;stroke-width:.5"/><circle cx="769.5" cy="226.475" r="11" fill="#ADD1B2" style="stroke:#181818;stroke-width:1"/><path d="M772.469 232.115q-.578.297-1.219.438-.64.156-1.344.156-2.5 0-3.828-1.64-1.312-1.657-1.312-4.782t1.312-4.781q1.328-1.656 3.828-1.656.703 0 1.344.156.656.156 1.219.453v2.719q-.625-.578-1.219-.844-.594-.281-1.219-.281-1.343 0-2.031 1.078-.687 1.062-.687 3.156t.687 3.172q.688 1.062 2.031 1.062.625 0 1.219-.265.594-.281 1.219-.86z"/><text x="788.5" y="232.36" fill="#D9B8FF" font-family="Helvetica" font-size="17" textLength="357">azure_compute_virtual_machine_scale_set</text><rect width="478" height="39.789" x="841" y="306.37" fill="#3D176E" rx="2.5" ry="2.5" style="stroke:#000d19;stroke-width:.5"/><circle cx="856" cy="326.264" r="11" fill="#ADD1B2" style="stroke:#181818;stroke-width:1"/><path d="M858.969 331.905q-.578.297-1.219.438-.64.156-1.344.156-2.5 0-3.828-1.64-1.312-1.657-1.312-4.782t1.312-4.781q1.328-1.656 3.828-1.656.703 0 1.344.156.656.156 1.219.453v2.719q-.625-.579-1.219-.844-.594-.281-1.219-.281-1.343 0-2.031 1.078-.687 1.062-.687 3.156t.687 3.172q.688 1.062 2.031 1.062.625 0 1.219-.265.594-.281 1.219-.86z"/><text x="875" y="332.15" fill="#D9B8FF" font-family="Helvetica" font-size="17" textLength="436">azure_compute_virtual_machine_scale_set_instance</text><path fill="none" d="M411.95 47.22c32.78 17.14 75.103 39.28 107.863 56.41" style="stroke:#1a83af;stroke-width:2"/><path fill="#1A83AF" d="m525.13 106.41-6.122-7.715 1.691 5.398-5.398 1.691z" style="stroke:#1a83af;stroke-width:2"/><path fill="none" d="M356.73 47.2c-35.75 37.77-110.455 116.703-146.265 154.533" style="stroke:#1a83af;stroke-width:2"/><path fill="#1A83AF" d="m206.34 206.09 9.092-3.786-5.655.155-.155-5.655z" style="stroke:#1a83af;stroke-width:2"/><path fill="none" d="M562 147.01v53.19" style="stroke:#1a83af;stroke-width:2"/><path fill="#1A83AF" d="m562 206.2 4-9-4 4-4-4z" style="stroke:#1a83af;stroke-width:2"/><path fill="none" d="M488.11 147.01c-65.46 17.11-154.735 40.452-220.245 57.582" style="stroke:#1a83af;stroke-width:2"/><path fill="#1A83AF" d="m262.06 206.11 9.72 1.593-4.883-2.858 2.858-4.882z" style="stroke:#1a83af;stroke-width:2"/><path fill="none" d="M639.45 147.01c68.61 17.11 162.448 40.518 231.108 57.648" style="stroke:#1a83af;stroke-width:2"/><path fill="#1A83AF" d="m876.38 206.11-7.764-6.06 2.913 4.85-4.85 2.912z" style="stroke:#1a83af;stroke-width:2"/><path fill="none" d="M769.44 141.17c165.82 12.95 374.86 35.03 401.56 65.41 29.39 33.45-16.417 72.068-53.167 96.078" style="stroke:#1a83af;stroke-width:2"/><path fill="#1A83AF" d="m1112.81 305.94 9.722-1.574-5.536-1.16 1.16-5.537z" style="stroke:#1a83af;stroke-width:2"/><path fill="none" d="M978.89 246.8c22.09 17.14 49.45 38.37 71.53 55.51" style="stroke:#1a83af;stroke-width:2"/><path fill="#1A83AF" d="m1055.16 305.99-4.657-8.678.707 5.612-5.612.707z" style="stroke:#1a83af;stroke-width:2"/></svg>
